Sources/FrostedUI/Resources/Icons.xcassets/medalCheckSize24.imageset/medal-check-size-24.svg

<svg
  width="24"
  height="24"
  viewBox="0 0 24 24"
  fill="none"
  xmlns="http://www.w3.org/2000/svg"
  data-fui-icon="true"
>
  <g clip-path="url(#clip0_622_697)">
    <g clip-path="url(#clip1_622_697)">
      <path
        fill-rule="evenodd"
        clip-rule="evenodd"
        d="M0.321017 2.70672C0.0434897 1.17566 1.33705 0.0312576 2.6998 0.0312576H4.74126C6.50823 0.0312576 7.80317 1.45782 8.10942 3.02248C8.40541 4.53479 8.95177 5.76303 9.42404 6.61221C9.61768 6.96041 9.79798 7.24325 9.94181 7.454C10.6004 7.28812 11.2899 7.2 12 7.2C12.71 7.2 13.3995 7.28809 14.058 7.45394C14.2018 7.2432 14.3821 6.96037 14.5758 6.61221C15.048 5.76303 15.5944 4.53479 15.8904 3.02248C16.1966 1.45782 17.4916 0.0312576 19.2585 0.0312576H21.3C22.6627 0.0312576 23.9563 1.17566 23.6788 2.70672C23.1744 5.48924 21.6476 7.52923 20.2758 8.85947C19.6228 9.49274 18.9977 9.97236 18.5194 10.3026C19.6952 11.7479 20.4 13.5916 20.4 15.6C20.4 20.2392 16.6392 24 12 24C7.36084 24 3.60004 20.2392 3.60004 15.6C3.60004 13.5917 4.30482 11.748 5.48054 10.3028C5.00223 9.97249 4.37708 9.49282 3.72395 8.85947C2.35218 7.52923 0.825393 5.48924 0.321017 2.70672ZM17.4545 9.21157C17.5009 9.18107 17.5499 9.1484 17.6011 9.11357C18.0317 8.8207 18.618 8.37769 19.2316 7.78263C20.4625 6.58905 21.7721 4.81551 22.2028 2.43918C22.2799 2.01389 21.9255 1.53126 21.3 1.53126H19.2585C18.3745 1.53126 17.5654 2.27366 17.3624 3.3106C17.0295 5.01151 16.4165 6.38851 15.8867 7.34127C15.7562 7.57594 15.6304 7.78545 15.5146 7.96835C16.2193 8.29345 16.8714 8.7133 17.4545 9.21157ZM8.11313 7.34127C8.24366 7.57598 8.36947 7.78552 8.48529 7.96845C7.78055 8.29356 7.12851 8.71341 6.5455 9.21168C6.49898 9.18114 6.44997 9.14844 6.39869 9.11357C5.96805 8.8207 5.38183 8.37769 4.76818 7.78263C3.53733 6.58905 2.22771 4.81551 1.79697 2.43918C1.71987 2.01389 2.07432 1.53126 2.6998 1.53126H4.74126C5.62526 1.53126 6.43439 2.27366 6.63735 3.3106C6.97026 5.01151 7.58326 6.38851 8.11313 7.34127ZM12 22.5C15.8108 22.5 18.9 19.4108 18.9 15.6C18.9 11.7892 15.8108 8.7 12 8.7C8.18927 8.7 5.10004 11.7892 5.10004 15.6C5.10004 19.4108 8.18927 22.5 12 22.5Z"
        fill="currentColor"
      />
      <path
        d="M9 16.2L10.8 18L15 13.8"
        stroke="currentColor"
        stroke-width="1.5"
        stroke-linecap="round"
        stroke-linejoin="round"
      />
    </g>
  </g>
  <defs>
    <clipPath id="clip0_622_697">
      <path fill="currentColor" d="M0 0H24V24H0z" />
    </clipPath>
    <clipPath id="clip1_622_697">
      <path fill="currentColor" d="M0 0H24V24H0z" />
    </clipPath>
  </defs>
</svg>

<svg xmlns="http://www.w3.org/2000/svg" width="24" height="24" fill="none" data-fui-icon="true" viewBox="0 0 24 24"><g clip-path="url(#a)"><g clip-path="url(#b)"><path fill="currentColor" fill-rule="evenodd" d="M.321 2.707C.043 1.176 1.337.03 2.7.03H4.74c1.767 0 3.062 1.427 3.368 2.991.296 1.513.843 2.741 1.315 3.59.194.348.374.631.518.842A8.4 8.4 0 0 1 12 7.2c.71 0 1.4.088 2.058.254.144-.21.324-.494.518-.842a12.3 12.3 0 0 0 1.314-3.59c.307-1.564 1.602-2.99 3.369-2.99H21.3c1.363 0 2.656 1.144 2.379 2.675-.505 2.782-2.031 4.822-3.403 6.152a14 14 0 0 1-1.757 1.444 8.4 8.4 0 1 1-13.039 0 14 14 0 0 1-1.756-1.444C2.352 7.53.825 5.49.32 2.707m17.133 6.505q.07-.046.147-.098c.43-.293 1.017-.736 1.63-1.331 1.231-1.194 2.541-2.967 2.972-5.344.077-.425-.277-.908-.903-.908h-2.041c-.884 0-1.694.743-1.897 1.78a13.8 13.8 0 0 1-1.847 4.657 8.4 8.4 0 0 1 1.94 1.244m-9.34-1.87q.196.352.371.626a8.4 8.4 0 0 0-1.94 1.244L6.4 9.114a12.3 12.3 0 0 1-1.63-1.331C3.536 6.589 2.227 4.816 1.796 2.439c-.077-.425.277-.908.903-.908H4.74c.884 0 1.693.743 1.896 1.78.333 1.7.946 3.078 1.476 4.03M12 22.5a6.9 6.9 0 1 0 0-13.8 6.9 6.9 0 0 0 0 13.8" clip-rule="evenodd"/><path stroke="currentColor" stroke-linecap="round" stroke-linejoin="round" stroke-width="1.5" d="m9 16.2 1.8 1.8 4.2-4.2"/></g></g><defs><clipPath id="a"><path fill="currentColor" d="M0 0h24v24H0z"/></clipPath><clipPath id="b"><path fill="currentColor" d="M0 0h24v24H0z"/></clipPath></defs></svg>
